icons/icn_casa.svg

<svg width="24" xmlns="http://www.w3.org/2000/svg" height="24" id="screenshot-6aeeeffc-7e40-80be-8006-9868528148b6" viewBox="0 0 24 24" xmlns:xlink="http://www.w3.org/1999/xlink" fill="none" version="1.1"><g id="shape-6aeeeffc-7e40-80be-8006-9868528148b6"><g class="frame-container-wrapper"><g class="frame-container-blur"><g class="frame-container-shadows"><g fill="none"><g class="fills" id="fills-6aeeeffc-7e40-80be-8006-9868528148b6"><rect rx="0" ry="0" x="0" y="0" width="24" height="24.000000000000455" transform="matrix(1, 0, 0, 1, 0, 0)" class="frame-background"/></g><g class="frame-children"><g id="shape-563718e9-8906-8058-8006-9864911919f3" rx="0" ry="0"><g id="shape-563718e9-8906-8058-8006-98644be089ef" style="opacity: 1;"><g class="fills" id="fills-563718e9-8906-8058-8006-98644be089ef"><path d="M12.002734184265137,2.5849609375C11.762011528015137,2.5859375,11.532275199890137,2.6868896484375,11.367968559265137,2.8641357421875L3.344775438308716,11.4132080078125C3.111377000808716,11.6656494140625,3.049609422683716,12.0328369140625,3.187060594558716,12.3480224609375C3.324511766433716,12.66357421875,3.635546922683716,12.867431640625,3.979541063308716,12.868408203125L5.123827934265137,12.868408203125L5.123827934265137,20.552001953125C5.125536918640137,21.0277099609375,5.511279106140137,21.4134521484375,5.987597465515137,21.415283203125L18.012500762939453,21.415283203125C18.488819122314453,21.4134521484375,18.874317169189453,21.0277099609375,18.876270294189453,20.552001953125L18.876270294189453,12.868408203125L20.020557403564453,12.868408203125C20.364551544189453,12.867431640625,20.675586700439453,12.66357421875,20.813037872314453,12.3480224609375C20.950489044189453,12.0328369140625,20.888721466064453,11.6656494140625,20.655323028564453,11.4132080078125L12.630175590515137,2.8641357421875C12.468798637390137,2.688720703125,12.241747856140137,2.5877685546875,12.002734184265137,2.5849609375ZM12.002734184265137,4.7178955078125L17.989551544189453,11.102783203125L6.017138481140137,11.102783203125ZM6.858447074890137,12.8388671875L17.147998809814453,12.8388671875L17.147998809814453,19.6805419921875L12.899706840515137,19.6805419921875C12.901659965515137,19.66845703125,12.902392387390137,19.656005859375,12.903368949890137,19.6435546875L12.903368949890137,16.0047607421875C12.901659965515137,15.529052734375,12.515917778015137,15.1434326171875,12.039599418640137,15.1416015625C11.564501762390137,15.1434326171875,11.178759574890137,15.529052734375,11.177050590515137,16.0047607421875L11.177050590515137,19.6435546875C11.177783012390137,19.656005859375,11.178759574890137,19.66845703125,11.180712699890137,19.6805419921875L6.858447074890137,19.6805419921875Z" style="display: inline; stroke-linecap: round; stroke-linejoin: round; fill: rgb(0, 0, 0); fill-opacity: 1;"/></g></g></g></g></g></g></g></g></g></svg>

<svg fill="none" viewBox="0 0 24 24"><g class="frame-container-wrapper"><g class="frame-container-blur"><g class="frame-container-shadows"><g class="fills"><rect width="24" height="24" class="frame-background" rx="0" ry="0"/></g><g class="frame-children"><path fill="#000" d="M12.0027 2.585a.8703.8703 0 0 0-.6347.2791l-8.0232 8.5491a.867.867 0 0 0 .6347 1.4552h1.1443v7.6836c.0017.4757.3875.8615.8638.8633h12.0249a.8671.8671 0 0 0 .8638-.8633v-7.6836h1.1443a.867.867 0 0 0 .6348-1.4552l-8.0252-8.549a.8661.8661 0 0 0-.6275-.2792Zm0 2.1329 5.9869 6.3849H6.017Zm-5.1443 8.121H17.148v6.8416h-4.2483c.002-.012.0027-.0245.0037-.037v-3.6387c-.0017-.4757-.3875-.8614-.8638-.8632-.4751.0018-.8608.3875-.8625.8632v3.6388a.3684.3684 0 0 0 .0036.037H6.8584Z" class="fills"/></g></g></g></g></svg>
